!! 00000] TT[WS
!!!OTL: Mai Cai
!!!ARE: Asia, China, Shanxi Xixian
!! Ethnic Group: Han
!! WII, 49 (1)
!!!SCT: J0466
!!!YEM: Copyright 1995, estate of Helmut Schaffrath.
**kern
*ICvox
*Ivox
!! Mixed meters:  2/4; 3/4
*M3/4
*k[b-]
*F:
{8dd
8dd
8dd
16cc
16dd
=1
8ff
8a
2cc}
=2
*M2/4
{8dd
16dd
16cc
8a
8cc
=3
*M3/4
8dd
8a
2g}
=4
*M2/4
{8g
16g
16f
8g
8a
=5
8cc
8a
4cc
=6
8f
16d
16d
4c}
=7
{4cc
8.a
16cc
=8
8g
4f
8d
=9
2c}
==
!!!AGN: Xiaodiao. Maimai, Qingge
!!!ONB: ESAC (Essen Associative Code) Database: CHINA
!!!AMT: irregular
!!!AIN: vox
!!!EED: Helmut Schaffrath
!!!EEV: 1.0
*-
